X: 463
%
U:~=!turn!
T: Mrs. Crawford of Donside
C:John Riddell
O:Scotland
B:Keith Norman MacDonald : "The Skye collection of the best reels & strathspeys extant" : 1887
Z:Ralph Palmer
R:Reel
M:C
L:1/8
K:Gm
DGGc (B/c/d) (TcB) | {/d}cAf(d cA)FA | DGGc (B/c/d) (cB) | cAfA G/G/G G2 :| Ggga (g/a/b) (Tag) | fcac fcac |
dgga (g/a/b) (Tag) | fdTc>A G/G/G G2 | dgga (g/a/b) (Tag) | cffg (f/g/a) (gf) | bgaf gdfd | TcAfA G/G/G G2 |]


